X: 1
T: Stout's Trip Ta Skea
R: reel
S: https://thesession.org/tunes/13057
D: Blazin’ Fiddles album "Magnificent Seven"
M: 4/4
L: 1/8
K: D
E |\
ABAF EDEF | A,A,B,D E4 |\
ABAF EDEF | A,A,B,C D3 :|
B |\
d3d BABd | AA Bd e3f |\
defe dcBA | (3Bcd AF D4 |
d3d BABd | AA Bd e3f |\
abaf edBA | (3Bcd AF D3 |]
